bundle/image/components/fullCard/img/eng.svg

<svg width="280" height="42" viewBox="0 0 280 42" fill="none" xmlns="http://www.w3.org/2000/svg">
<path d="M11.7188 40.5469H0L13.2031 0.546875H28.0469L41.25 40.5469H29.5313L20.7812 11.5625H20.4688L11.7188 40.5469ZM9.53125 24.7656H31.5625V32.8906H9.53125V24.7656Z" fill="white"/>
<path d="M79.7119 0.546875V40.5469H70.6494L56.1963 19.5313H55.9619V40.5469H45.1025V0.546875H54.3213L68.54 21.4844H68.8525V0.546875H79.7119Z" fill="white"/>
<path d="M95.2393 40.5469H83.5205L96.7236 0.546875H111.567L124.771 40.5469H113.052L104.302 11.5625H103.989L95.2393 40.5469ZM93.0518 24.7656H115.083V32.8906H93.0518V24.7656Z" fill="white"/>
<path d="M128.623 40.5469V0.546875H139.482V31.7969H155.654V40.5469H128.623Z" fill="white"/>
<path d="M151.152 0.546875H163.262L171.074 16.7969H171.387L179.199 0.546875H191.309L176.621 27.9688V40.5469H165.84V27.9688L151.152 0.546875Z" fill="white"/>
<path d="M216.411 13.0469C216.307 11.7448 215.819 10.7292 214.946 10C214.087 9.27083 212.778 8.90625 211.021 8.90625C209.901 8.90625 208.983 9.04297 208.267 9.31641C207.563 9.57682 207.043 9.9349 206.704 10.3906C206.366 10.8464 206.19 11.3672 206.177 11.9531C206.151 12.4349 206.235 12.8711 206.431 13.2617C206.639 13.6393 206.965 13.9844 207.407 14.2969C207.85 14.5964 208.416 14.8698 209.106 15.1172C209.797 15.3646 210.617 15.5859 211.567 15.7813L214.849 16.4844C217.062 16.9531 218.957 17.5716 220.532 18.3398C222.108 19.1081 223.397 20.013 224.399 21.0547C225.402 22.0833 226.138 23.2422 226.606 24.5313C227.088 25.8203 227.336 27.2266 227.349 28.75C227.336 31.3802 226.678 33.6068 225.376 35.4297C224.074 37.2526 222.212 38.6393 219.79 39.5898C217.381 40.5404 214.484 41.0156 211.099 41.0156C207.622 41.0156 204.588 40.5013 201.997 39.4727C199.419 38.444 197.414 36.862 195.981 34.7266C194.562 32.5781 193.846 29.8307 193.833 26.4844H204.146C204.211 27.7083 204.517 28.737 205.063 29.5703C205.61 30.4036 206.379 31.0352 207.368 31.4648C208.371 31.8945 209.562 32.1094 210.942 32.1094C212.101 32.1094 213.071 31.9661 213.853 31.6797C214.634 31.3932 215.226 30.9961 215.63 30.4883C216.034 29.9805 216.242 29.401 216.255 28.75C216.242 28.138 216.04 27.6042 215.649 27.1484C215.272 26.6797 214.647 26.263 213.774 25.8984C212.902 25.5208 211.724 25.1693 210.239 24.8438L206.255 23.9844C202.713 23.2161 199.92 21.9336 197.876 20.1367C195.845 18.3268 194.836 15.8594 194.849 12.7344C194.836 10.1953 195.513 7.97526 196.88 6.07422C198.26 4.16016 200.168 2.66927 202.603 1.60156C205.05 0.533854 207.856 0 211.021 0C214.25 0 217.043 0.540365 219.399 1.62109C221.756 2.70182 223.573 4.22526 224.849 6.19141C226.138 8.14453 226.789 10.4297 226.802 13.0469H216.411Z" fill="white"/>
<path d="M242.339 0.546875V40.5469H231.479V0.546875H242.339Z" fill="white"/>
<path d="M269.048 13.0469C268.944 11.7448 268.455 10.7292 267.583 10C266.724 9.27083 265.415 8.90625 263.657 8.90625C262.537 8.90625 261.619 9.04297 260.903 9.31641C260.2 9.57682 259.679 9.9349 259.341 10.3906C259.002 10.8464 258.826 11.3672 258.813 11.9531C258.787 12.4349 258.872 12.8711 259.067 13.2617C259.276 13.6393 259.601 13.9844 260.044 14.2969C260.487 14.5964 261.053 14.8698 261.743 15.1172C262.433 15.3646 263.254 15.5859 264.204 15.7813L267.485 16.4844C269.699 16.9531 271.593 17.5716 273.169 18.3398C274.744 19.1081 276.034 20.013 277.036 21.0547C278.039 22.0833 278.774 23.2422 279.243 24.5313C279.725 25.8203 279.972 27.2266 279.985 28.75C279.972 31.3802 279.315 33.6068 278.013 35.4297C276.711 37.2526 274.849 38.6393 272.427 39.5898C270.018 40.5404 267.121 41.0156 263.735 41.0156C260.259 41.0156 257.225 40.5013 254.634 39.4727C252.056 38.444 250.05 36.862 248.618 34.7266C247.199 32.5781 246.483 29.8307 246.47 26.4844H256.782C256.847 27.7083 257.153 28.737 257.7 29.5703C258.247 30.4036 259.015 31.0352 260.005 31.4648C261.007 31.8945 262.199 32.1094 263.579 32.1094C264.738 32.1094 265.708 31.9661 266.489 31.6797C267.271 31.3932 267.863 30.9961 268.267 30.4883C268.67 29.9805 268.879 29.401 268.892 28.75C268.879 28.138 268.677 27.6042 268.286 27.1484C267.909 26.6797 267.284 26.263 266.411 25.8984C265.539 25.5208 264.36 25.1693 262.876 24.8438L258.892 23.9844C255.35 23.2161 252.557 21.9336 250.513 20.1367C248.481 18.3268 247.472 15.8594 247.485 12.7344C247.472 10.1953 248.149 7.97526 249.517 6.07422C250.897 4.16016 252.804 2.66927 255.239 1.60156C257.687 0.533854 260.493 0 263.657 0C266.886 0 269.679 0.540365 272.036 1.62109C274.393 2.70182 276.209 4.22526 277.485 6.19141C278.774 8.14453 279.425 10.4297 279.438 13.0469H269.048Z" fill="white"/>
</svg>

<svg width="280" height="42" fill="none" xmlns="http://www.w3.org/2000/svg"><path d="M11.719 40.547H0l13.203-40h14.844l13.203 40H29.531l-8.75-28.984h-.312l-8.75 28.984zM9.53 24.766h22.032v8.125H9.53v-8.125zM79.712.547v40h-9.063L56.196 19.53h-.234v21.016h-10.86v-40h9.22L68.54 21.484h.313V.547h10.859zM95.24 40.547H83.52l13.204-40h14.843l13.204 40h-11.719l-8.75-28.984h-.313l-8.75 28.984zm-2.188-15.781h22.031v8.125H93.052v-8.125zM128.623 40.547v-40h10.859v31.25h16.172v8.75h-27.031zM151.152.547h12.11l7.812 16.25h.313l7.812-16.25h12.11l-14.688 27.422v12.578H165.84V27.969L151.152.547zM216.411 13.047c-.104-1.302-.592-2.318-1.465-3.047-.859-.73-2.168-1.094-3.925-1.094-1.12 0-2.038.137-2.754.41-.704.26-1.224.619-1.563 1.075a2.658 2.658 0 0 0-.527 1.562 2.56 2.56 0 0 0 .254 1.309c.208.377.534.722.976 1.035.443.3 1.009.573 1.699.82.691.248 1.511.469 2.461.664l3.282.703c2.213.47 4.108 1.088 5.683 1.856 1.576.768 2.865 1.673 3.867 2.715 1.003 1.028 1.739 2.187 2.207 3.476.482 1.29.73 2.696.743 4.219-.013 2.63-.671 4.857-1.973 6.68-1.302 1.823-3.164 3.21-5.586 4.16-2.409.95-5.306 1.426-8.691 1.426-3.477 0-6.511-.515-9.102-1.543-2.578-1.029-4.583-2.611-6.016-4.746-1.419-2.149-2.135-4.896-2.148-8.243h10.313c.065 1.224.371 2.253.917 3.086.547.834 1.316 1.465 2.305 1.895 1.003.43 2.194.644 3.574.644 1.159 0 2.129-.143 2.911-.43.781-.286 1.373-.683 1.777-1.19a2.81 2.81 0 0 0 .625-1.739 2.468 2.468 0 0 0-.606-1.602c-.377-.468-1.002-.885-1.875-1.25-.872-.377-2.05-.729-3.535-1.054l-3.984-.86c-3.542-.768-6.335-2.05-8.379-3.847-2.031-1.81-3.04-4.278-3.027-7.403-.013-2.539.664-4.759 2.031-6.66 1.38-1.914 3.288-3.405 5.723-4.472C205.05.534 207.856 0 211.021 0c3.229 0 6.022.54 8.378 1.621 2.357 1.08 4.174 2.604 5.45 4.57 1.289 1.954 1.94 4.239 1.953 6.856h-10.391zM242.339.547v40h-10.86v-40h10.86zM269.048 13.047c-.104-1.302-.593-2.318-1.465-3.047-.859-.73-2.168-1.094-3.926-1.094-1.12 0-2.038.137-2.754.41-.703.26-1.224.619-1.562 1.075a2.653 2.653 0 0 0-.528 1.562 2.57 2.57 0 0 0 .254 1.309c.209.377.534.722.977 1.035.443.3 1.009.573 1.699.82.69.248 1.511.469 2.461.664l3.281.703c2.214.47 4.108 1.088 5.684 1.856 1.575.768 2.865 1.673 3.867 2.715a9.683 9.683 0 0 1 2.207 3.476c.482 1.29.729 2.696.742 4.219-.013 2.63-.67 4.857-1.972 6.68-1.302 1.823-3.164 3.21-5.586 4.16-2.409.95-5.306 1.426-8.692 1.426-3.476 0-6.51-.515-9.101-1.543-2.578-1.029-4.584-2.611-6.016-4.746-1.419-2.149-2.135-4.896-2.148-8.243h10.312c.065 1.224.371 2.253.918 3.086.547.834 1.315 1.465 2.305 1.895 1.002.43 2.194.644 3.574.644 1.159 0 2.129-.143 2.91-.43.782-.286 1.374-.683 1.778-1.19a2.816 2.816 0 0 0 .625-1.739 2.468 2.468 0 0 0-.606-1.602c-.377-.468-1.002-.885-1.875-1.25-.872-.377-2.051-.729-3.535-1.054l-3.984-.86c-3.542-.768-6.335-2.05-8.379-3.847-2.032-1.81-3.041-4.278-3.028-7.403-.013-2.539.664-4.759 2.032-6.66 1.38-1.914 3.287-3.405 5.722-4.472C257.687.534 260.493 0 263.657 0c3.229 0 6.022.54 8.379 1.621 2.357 1.08 4.173 2.604 5.449 4.57 1.289 1.954 1.94 4.239 1.953 6.856h-10.39z" fill="#fff"/></svg>
